X:99
T:Jou'l Pount D'o Mirabel
M:6/8
L:1/8
N:Large
N: (Extrait du Bulletin de la Solidarit Aveyronnaise)
N: Chanson recueillie  Rignac (Aveyron)
N: par M. E. Pezet.
N:La Bourre 4th edition 1929, page 95
Z:Steve Mansfield www.lesession.co.uk June 2012
K:C
G | c3 e d e | (c{ed} c2) - c c e | !crescendo(! e3 ({fe} d2) !crescendo)! e |
!fermata! (f3 e3) | ({fe} d3) - d z c | c3 "rall." c d e | !p! d3 - d z (c | 
!fermata! e) ({fe} d) (cA) !diminuendo(! B "rall." c | !fermata! (d6 !diminuendo)! !p! ({ced})) | !fermata! c6 |]
<end>
<start>
